src/topics/icons/heroku.svg

<svg height="400" preserveAspectRatio="xMidYMid" viewBox="0 0 256 400" width="256" xmlns="http://www.w3.org/2000/svg"><path d="m28.0830072 398.288737v-34.778534c0-2.451938-1.797542-3.509719-3.9166496-3.509719-4.2481069 0-9.5539951 1.057781-14.37118837 3.180949v35.107361h-9.79516923v-64.576062h9.79516923v21.304402c4.65549567-1.712634 10.20616017-3.180949 15.75773947-3.180949 8.8982279 0 12.2457912 5.469816 12.2457912 12.977033v33.475576h-9.7156927zm27.9990137-21.062256c.3260826 11.674018 2.6131773 13.960655 9.7943116 13.960655 5.6337432 0 12.0018726-1.878791 16.9012868-3.757182l1.6322424 7.345977c-5.2254969 2.370631-11.5927113 4.654581-19.1830069 4.654581-16.3303709 0-18.8622991-8.977762-18.8622991-23.267187 0-7.835529.5735462-14.93936 2.4505649-21.470101 4.8975846-1.878391 11.4292412-2.857096 19.6725595-2.857096 13.3928835 0 17.4730605 7.429913 17.4730605 20.409633v4.980663h-29.8787197zm12.4057163-17.225997c-2.9347999 0-7.5902955.081306-11.4265538.813005-.406474 1.960098-.8987711 4.654581-1.0622412 9.635301h20.409633c0-6.777805-1.2248536-10.448306-7.920838-10.448306zm35.8376878 3.180949v35.107361h-9.7969989v-39.514536c8.2460629-4.48888 16.9807629-5.877662 22.6976429-6.285508v8.164299c-4.000644.32614-9.064386.815693-12.900644 2.528384zm38.777862 36.249079c-14.615964 0-21.228012-7.182907-21.228012-23.593269 0-17.389067 8.734757-24.001115 21.228012-24.001115 14.611505 0 21.225326 7.182907 21.225326 23.593269 0 17.389124-8.736531 24.001115-21.225326 24.001115zm0-39.430028c-7.512591 0-11.674932 4.325354-11.674932 15.836816 0 12.574104 3.510176 15.349893 11.674932 15.349893 7.50899 0 11.674018-4.246734 11.674018-15.757739 0-12.574161-3.511034-15.42897-11.674018-15.42897zm68.489567 38.288253h-11.511405c-2.692711-7.183365-6.450293-14.531971-12.246706-20.899243h-5.143276v20.899243h-9.796084v-64.576005h9.796084v37.062084h4.572417c4.979806-5.143733 8.816064-11.508718 11.511405-17.796913h11.020023c-3.754037 7.59344-8.570373 14.287194-13.95934 19.75701 6.450351 8.164357 11.511463 16.818208 15.756882 25.553824zm18.362855 1.141775c-8.896455 0-12.244019-5.467586-12.244019-12.979263v-33.473346h9.71392v34.696827c0 2.451937 1.794855 3.512406 3.917565 3.512406 4.24542 0 10.041775-1.060469 14.860741-3.183636v-35.025597h9.796084v39.351008c-11.592711 6.367672-20.492712 7.101601-26.044291 7.101601z" fill="#6762a6"/><path d="m225.627557 317.252791h-195.3704207c-16.7114114 0-30.2571363-13.544579-30.2571363-30.25468v-256.7421212c0-16.7102649 13.5457249-30.2559898 30.2571363-30.2559898h195.3704207c16.708955 0 30.259757 13.5457249 30.259757 30.2559898v256.7421212c0 16.710101-13.550802 30.25468-30.259757 30.25468z" fill="#6762a6"/><path d="m160.360824 273.600778v-125.990981s8.194457-30.149692-100.9442559 12.334024c-.199657.538697-.199657-116.5040769-.199657-116.5040769l35.6596698-.2188202v74.9904751s99.8463881-39.3257279 99.8463881 29.823426v125.566281h-34.362145zm20.31998-184.9943135h-37.824778c13.614843-16.6462239 25.939859-45.167048 25.939859-45.167048h39.109364c0 .0001638-6.694818 18.5861241-27.224445 45.167048zm-120.8164406 184.7754935v-71.747972l35.8771798 35.87718z" fill="#fff"/></svg>

<?xml version="1.0" encoding="UTF-8" standalone="no" ?>
<svg width="256px" height="400px" viewBox="0 0 256 400" version="1.1" xmlns="http://www.w3.org/2000/svg" xmlns:xlink="http://www.w3.org/1999/xlink" preserveAspectRatio="xMidYMid">
    <g>
        <path d="M28.0830072,398.288737 L28.0830072,363.510203 C28.0830072,361.058265 26.2854652,360.000484 24.1663576,360.000484 C19.9182507,360.000484 14.6123625,361.058265 9.79516923,363.181433 L9.79516923,398.288794 L0,398.288794 L0,333.712732 L9.79516923,333.712732 L9.79516923,355.017134 C14.4506649,353.3045 20.0013294,351.836185 25.5529087,351.836185 C34.4511366,351.836185 37.7986999,357.306001 37.7986999,364.813218 L37.7986999,398.288794 L28.0830072,398.288794 L28.0830072,398.288737 L28.0830072,398.288737 Z M56.0820209,377.226481 C56.4081035,388.900499 58.6951982,391.187136 65.8763325,391.187136 C71.5100757,391.187136 77.8782051,389.308345 82.7776193,387.429954 L84.4098617,394.775931 C79.1843648,397.146562 72.8171504,399.430512 65.2268548,399.430512 C48.8964839,399.430512 46.3645557,390.45275 46.3645557,376.163325 C46.3645557,368.327796 46.9381019,361.223965 48.8151206,354.693224 C53.7127052,352.814833 60.2443618,351.836128 68.4876801,351.836128 C81.8805636,351.836128 85.9607406,359.266041 85.9607406,372.245761 L85.9607406,377.226424 L56.0820209,377.226424 L56.0820209,377.226481 L56.0820209,377.226481 Z M68.4877372,360.000484 C65.5529373,360.000484 60.8974417,360.08179 57.0611834,360.813489 C56.6547094,362.773587 56.1624123,365.46807 55.9989422,370.44879 L76.4085752,370.44879 C76.4085752,363.670985 75.1837216,360.000484 68.4877372,360.000484 L68.4877372,360.000484 L68.4877372,360.000484 Z M104.325425,363.181433 L104.325425,398.288794 L94.5284261,398.288794 L94.5284261,358.774258 C102.774489,354.285378 111.509189,352.896596 117.226069,352.48875 L117.226069,360.653049 C113.225425,360.979189 108.161683,361.468742 104.325425,363.181433 L104.325425,363.181433 L104.325425,363.181433 Z M143.103287,399.430512 C128.487323,399.430512 121.875275,392.247605 121.875275,375.837243 C121.875275,358.448176 130.610032,351.836128 143.103287,351.836128 C157.714792,351.836128 164.328613,359.019035 164.328613,375.429397 C164.328613,392.818521 155.592082,399.430512 143.103287,399.430512 L143.103287,399.430512 L143.103287,399.430512 Z M143.103287,360.000484 C135.590696,360.000484 131.428355,364.325838 131.428355,375.8373 C131.428355,388.411404 134.938531,391.187193 143.103287,391.187193 C150.612277,391.187193 154.777305,386.940459 154.777305,375.429454 C154.777305,362.855293 151.266271,360.000484 143.103287,360.000484 L143.103287,360.000484 L143.103287,360.000484 Z M211.592854,398.288737 L200.081449,398.288737 C197.388738,391.105372 193.631156,383.756766 187.834743,377.389494 L182.691467,377.389494 L182.691467,398.288737 L172.895383,398.288737 L172.895383,333.712732 L182.691467,333.712732 L182.691467,370.774816 L187.263884,370.774816 C192.24369,365.631083 196.079948,359.266098 198.775289,352.977903 L209.795312,352.977903 C206.041275,360.571343 201.224939,367.265097 195.835972,372.734913 C202.286323,380.89927 207.347435,389.553121 211.592854,398.288737 L211.592854,398.288737 L211.592854,398.288737 Z M229.955709,399.430512 C221.059254,399.430512 217.71169,393.962926 217.71169,386.451249 L217.71169,352.977903 L227.42561,352.977903 L227.42561,387.67473 C227.42561,390.126667 229.220465,391.187136 231.343175,391.187136 C235.588595,391.187136 241.38495,390.126667 246.203916,388.0035 L246.203916,352.977903 L256,352.977903 L256,392.328911 C244.407289,398.696583 235.507288,399.430512 229.955709,399.430512 L229.955709,399.430512 L229.955709,399.430512 Z" fill="#6762A6"></path>
        <g>
            <path d="M225.627557,317.252791 L30.2571363,317.252791 C13.5457249,317.252791 0,303.708212 0,286.998111 L0,30.2559898 C0,13.5457249 13.5457249,0 30.2571363,0 L225.627557,0 C242.336512,0 255.887314,13.5457249 255.887314,30.2559898 L255.887314,286.998111 C255.887314,303.708212 242.336512,317.252791 225.627557,317.252791 L225.627557,317.252791 L225.627557,317.252791 Z" fill="#6762A6"></path>
            <path d="M160.360824,273.600778 L160.360824,147.609797 C160.360824,147.609797 168.555281,117.460105 59.4165681,159.943821 C59.2169111,160.482518 59.2169111,43.4397441 59.2169111,43.4397441 L94.8765809,43.2209239 L94.8765809,118.211399 C94.8765809,118.211399 194.722969,78.8856711 194.722969,148.034825 L194.722969,273.601106 L160.360824,273.601106 L160.360824,273.600778 L160.360824,273.600778 Z M180.680804,88.6064645 L142.856026,88.6064645 C156.470869,71.9602406 168.795885,43.4394165 168.795885,43.4394165 L207.905249,43.4394165 C207.905249,43.4395803 201.210431,62.0255406 180.680804,88.6064645 L180.680804,88.6064645 L180.680804,88.6064645 Z M59.8643634,273.381958 L59.8643634,201.633986 L95.7415432,237.511166 L59.8643634,273.381958 L59.8643634,273.381958 Z" fill="#FFFFFF"></path>
        </g>
    </g>
</svg>
